Mono Glyph Icons/misc/misc-unfilled/adb.svg

<svg viewBox="0 0 48 48" xmlns="http://www.w3.org/2000/svg"><path d="m13.8 6.88.68-1.08c.24-.4.12-.92-.28-1.16s-.92-.12-1.16.28l-.76 1.2c-.76-.28-1.56-.44-2.36-.44-.84 0-1.64.16-2.36.44l-.76-1.2c-.24-.4-.76-.52-1.16-.28s-.52.76-.28 1.16l.68 1.08c-1.84 1.24-3.08 3.36-3.08 5.76v8.72c0 1.28 1.04 2.32 2.32 2.32h1.56l.04 2.96c0 .48.4.84.84.84.48 0 .84-.4.84-.84l-.04-2.96h2.68l.04 2.96c0 .48.4.84.84.84.48 0 .84-.4.84-.84l-.04-2.96h1.6c1.28 0 2.32-1.04 2.32-2.32v-8.72c.08-2.4-1.12-4.52-3-5.76zm-3.88.52c2.6 0 4.8 1.92 5.2 4.4h-10.4c.4-2.52 2.6-4.4 5.2-4.4zm4.64 14.6h-9.28c-.36 0-.64-.28-.64-.64v-7.88h10.56v7.88c0 .36-.32.64-.64.64zm5.28-8.6v6.2c0 .48-.4.84-.84.84s-.84-.4-.84-.84v-6.2c0-.48.4-.84.84-.84s.84.36.84.84zm-18.12 0v6.2c0 .48-.4.84-.84.84s-.88-.36-.88-.84v-6.2c0-.48.4-.84.84-.84s.88.36.88.84z" transform="matrix(1.79675 0 0 1.79675 6.17624 -4.74519)"/><circle cx="27.52832" cy="13.490104" r="1.729"/><circle cx="20.47253" cy="13.490104" r="1.729"/></svg>

<?xml version="1.0" encoding="UTF-8" standalone="no"?>
<!DOCTYPE svg PUBLIC "-//W3C//DTD SVG 1.1//EN" "http://www.w3.org/Graphics/SVG/1.1/DTD/svg11.dtd">
<svg width="100%" height="100%" viewBox="0 0 48 48" version="1.1" xmlns="http://www.w3.org/2000/svg" xmlns:xlink="http://www.w3.org/1999/xlink" xml:space="preserve" xmlns:serif="http://www.serif.com/" style="fill-rule:evenodd;clip-rule:evenodd;stroke-linejoin:round;stroke-miterlimit:2;">
    <g transform="matrix(1.79675,0,0,1.79675,6.17624,-4.74519)">
        <path d="M13.8,6.88L14.48,5.8C14.72,5.4 14.6,4.88 14.2,4.64C13.8,4.4 13.28,4.52 13.04,4.92L12.28,6.12C11.52,5.84 10.72,5.68 9.92,5.68C9.08,5.68 8.28,5.84 7.56,6.12L6.8,4.92C6.56,4.52 6.04,4.4 5.64,4.64C5.24,4.88 5.12,5.4 5.36,5.8L6.04,6.88C4.2,8.12 2.96,10.24 2.96,12.64L2.96,21.36C2.96,22.64 4,23.68 5.28,23.68L6.84,23.68L6.88,26.64C6.88,27.12 7.28,27.48 7.72,27.48C8.2,27.48 8.56,27.08 8.56,26.64L8.52,23.68L11.2,23.68L11.24,26.64C11.24,27.12 11.64,27.48 12.08,27.48C12.56,27.48 12.92,27.08 12.92,26.64L12.88,23.68L14.48,23.68C15.76,23.68 16.8,22.64 16.8,21.36L16.8,12.64C16.88,10.24 15.68,8.12 13.8,6.88ZM9.92,7.4C12.52,7.4 14.72,9.32 15.12,11.8L4.72,11.8C5.12,9.28 7.32,7.4 9.92,7.4ZM14.56,22L5.28,22C4.92,22 4.64,21.72 4.64,21.36L4.64,13.48L15.2,13.48L15.2,21.36C15.2,21.72 14.88,22 14.56,22ZM19.84,13.4L19.84,19.6C19.84,20.08 19.44,20.44 19,20.44C18.56,20.44 18.16,20.04 18.16,19.6L18.16,13.4C18.16,12.92 18.56,12.56 19,12.56C19.44,12.56 19.84,12.92 19.84,13.4ZM1.72,13.4L1.72,19.6C1.72,20.08 1.32,20.44 0.88,20.44C0.44,20.44 0,20.08 0,19.6L0,13.4C0,12.92 0.4,12.56 0.84,12.56C1.28,12.56 1.72,12.92 1.72,13.4Z" style="fill-rule:nonzero;"/>
    </g>
    <g transform="matrix(1,0,0,1,-2.43168,-0.0868955)">
        <circle cx="29.96" cy="13.577" r="1.729"/>
    </g>
    <g transform="matrix(1,0,0,1,-9.48747,-0.0868955)">
        <circle cx="29.96" cy="13.577" r="1.729"/>
    </g>
</svg>
